X: 071
M: C
L: 1/8
K: D
f | (d>ed)A dfaf | gefd Be-ef | (d>ed)A dfaf | gebg fd-d ||
f | (d>ed)A dfaf | gefd Be-ef | dAFD GBA=c | B(bag) fdd |]


